X:3161
T:Ductia
C:anon.
O:France
R:Ductia
Z:Transcribed by Frank Nordberg - http://www.musicaviva.com
F:http://abc.musicaviva.com/tunes/france/ductia01/ductia01.abc
M:6/8
L:1/8
Q:Q:1/4=210
K:Gmix
d2e fed|c3 c2A|B2G A2B|c3z3|d2B c2d|c3 A2F|GAB cdB|c3z3|
A2B c2d|e2d B2c|A2B cec|d3z3|c2B A2G|B3B2c|A3 A2B|c3z3|
d2d cBA|c3 c2e|d2d cBA|G3z3|d2d cBA|c3 c2e|d2d cBA|G3z3|
c2B c2d|B3 B2G|A2B c2B|A3z3|c2B c2d|B3 B2G|A3 B2A|G6|]
W:
W:
W:  From Musica Viva - http://www.musicaviva.com
W:  the Internet center for free sheet music downloads.
